ultima-forms/img/card-icon.svg

<svg width="24" height="24" viewBox="0 0 24 24" fill="none" xmlns="http://www.w3.org/2000/svg">
<path d="M16 5H20C21.1046 5 22 5.89543 22 7V10M13 5H4C2.89543 5 2 5.89543 2 7V10M2 10V17C2 18.1046 2.89543 19 4 19H20C21.1046 19 22 18.1046 22 17V10M2 10H22" stroke="#187FB8" stroke-width="1.5" stroke-linecap="round" stroke-linejoin="round"/>
</svg>

<svg width="24" height="24" fill="none" xmlns="http://www.w3.org/2000/svg"><path d="M16 5h4a2 2 0 0 1 2 2v3m-9-5H4a2 2 0 0 0-2 2v3m0 0v7a2 2 0 0 0 2 2h16a2 2 0 0 0 2-2v-7M2 10h20" stroke="#187FB8" stroke-width="1.5" stroke-linecap="round" stroke-linejoin="round"/></svg>
